X:1
T:Title
%%score { ( 1 3 ) | 2 }
L:1/8
M:4/4
K:Ab
V:1 treble nm="Grand Piano"
V:3 treble 
V:2 bass 
V:1
 z4 z2[Q:1/4=100] [CE][CE] | c2 c2 c3 [FB] | AGFG [CA]2 [CA][EG] | [DF]2 [Fd]2 [Ec]3 B | %4
 AA[=DB][Dc] B2 EE | c2 c2 c3 [FB] | AGFG [CA]2 [EG][FA] | [GB]2 [AB]2 [Ge]3 [EG] | %8
[M:7/8] [=DB][DA][DG] [DF] E3 |[M:5/16] c3/2B |[M:4/4] [CA]2 [DA]2 [CA]2 [Fd][Ec] | %11
 z2 B2[K:bass][K:treble] z4 | e2 cA G2 A2 | [EGB]6 [EGc]B | A2 A2 A2 [Fd][Ec] | %15
 z2 B2[K:bass][K:treble] z4 | eAdc B[Gd]cB |[M:3/4] [CA]6 |] %18
V:2
 z4 z2 [A,,A,][A,,A,] | [A,E]2 [G,B,=E]2 [F,=A,_E]3 [D,B,] | %2
 [E,CE][E,B,D][E,A,D][E,B,D] [A,,A,]2 [A,,E,][A,,A,] | [D,A,]2 [D,A,]2 [A,,A,]3 [E,G,D] | %4
 [F,A,C][F,A,C][B,,A,][B,,F,] [E,G,E]2 [E,G,D][E,G,] | [A,E]2 [G,B,=E]2 [F,=A,_E]3 [D,B,] | %6
 [E,CE][E,B,D][E,A,D][E,B,D] [A,,A,]2 [E,B,][E,B,] | [E,E]2 [F,=D]2 [E,B,]3 [E,B,] | %8
[M:7/8] [B,,B,][B,,F,][B,,B,] [B,,A,] [E,G,B,]3 |[M:5/16] [E,G,E]3/2[E,D] | %10
[M:4/4] [A,,E,]2 [A,,F,]2 [A,,E,]2 [A,,A,][A,,A,] | %11
 [E,G,E]2 .[F,A,=D]2 [E,G,E]2[K:treble] [A,E][A,B,E] | %12
 [A,CA]2 [A,EA][A,CE][K:bass] [B,DE]2 [A,CE]2 | E,2 G,B, E,2 E,[E,DE] | %14
 [A,CE]2 [A,DF]2[K:bass] [A,CE]2 [A,,A,][A,,A,] | [E,G,E]2 .[F,A,=D]2 [E,G,E]2 [A,E][A,B,E] | %16
 [A,CE][A,CE][G,B,E][A,E] [E,G,E][E,B,][E,A,E][E,D] |[M:3/4] [A,,E,A,]6 |] %18
V:3
 x8 | x8 | x8 | x8 | x8 | x8 | x8 | x8 |[M:7/8] x7 |[M:5/16] x5/2 |[M:4/4] x8 | %11
 B2 z[K:bass] B,,[K:treble] B2 cd | x8 | x8 | x8 | B2 z[K:bass] B,,[K:treble] B2 cd | x8 | %17
[M:3/4] x6 |] %18

